img/svg/arrow.svg

<svg width="12" height="6" viewBox="0 0 12 6" fill="none" xmlns="http://www.w3.org/2000/svg">
<path d="M10.6921 0.392384C10.7588 0.325683 10.854 0.325683 10.9207 0.392384C10.9868 0.458901 10.9867 0.553377 10.9207 0.619923L5.89136 5.56231L5.8894 5.56426C5.84918 5.60448 5.82119 5.62431 5.80347 5.63359C5.78923 5.64105 5.7816 5.64137 5.77515 5.64141C5.73284 5.64141 5.696 5.63169 5.63843 5.58672L0.628662 0.663868H0.629639C0.562938 0.597168 0.562938 0.502053 0.629639 0.435352C0.679657 0.385612 0.745545 0.373215 0.803467 0.398243L0.858154 0.435352L0.861084 0.438282L5.54175 5.01055L5.77612 5.23906L6.00854 5.00957L10.6902 0.39336L10.6921 0.392384Z" fill="#111928" stroke="#111928" stroke-width="0.666667"/>
</svg>

<?xml version="1.0" encoding="utf-8"?><svg width="12" height="6" fill="none" xmlns="http://www.w3.org/2000/svg" viewBox="0 0 12 6"><path d="M10.692.392a.156.156 0 0 1 .229 0 .155.155 0 0 1 0 .228L5.89 5.562l-.002.002a.385.385 0 0 1-.086.07.054.054 0 0 1-.028.007c-.042 0-.079-.01-.137-.054L.628.664H.63a.155.155 0 0 1 0-.229.155.155 0 0 1 .173-.037l.055.037.003.003 4.68 4.573.235.228.233-.23L10.69.394h.002Z" fill="#111928" stroke="#111928" stroke-width=".667"/></svg>
